X:1
T:Title
%%score { ( 1 4 ) | ( 2 3 ) }
L:1/8
M:4/4
K:A
V:1 treble nm="Grand Piano"
V:4 treble 
V:2 bass 
V:3 bass 
V:1
 z4 z2[Q:1/4=100] [A,C][B,D] | [CE]2 [CE]>[CE] [CE] [CA]2 [EG] | [DF]2 [FA]>[DF] [CE]2 [A,C][B,D] | %3
 [CE]2 [CE]>[CE] [CE] [CA]2 [CA] | [Fd]cBA B2 AB | c2 c>c dcBA | z4 .B2 z2 | E2 E>E E A2 A | %8
[M:7/8] AGF G [A,CA]3 |[M:1/4] G>A |[M:4/4] B6 z2 | [CA]2 [EG]>[A,DF] [A,CE]2 GA | B6 z2 | c6 AB | %14
 c2 c>c dcBA | F2 F>F BAGF | E6 z2 |[M:7/8] A2- [DA-] [DA-] [CA]3 |] %18
V:2
 z4 z2 [A,,E,][A,,E,] | [A,,A,]2 [A,,A,]>[A,,A,] [A,,A,] [A,,A,]2 [C,A,] | %2
 [D,A,]2 [D,A,]>[D,A,] [A,,A,]2 [A,,E,][A,,E,] | [A,,A,]2 [A,,A,]>[A,,A,] [A,,A,] [A,,E,]2 A, | %4
 z E[A,D][A,C] [E,G,E]2 [E,A,C][E,G,E] | [A,E]2 [A,E]>[A,E] FE[K:bass][A,D][A,C] | %6
 [D,A,D]2 [D,A,D]>[D,A,D] [D,A,]2 [D,A,E][D,A,D] | %7
 [E,A,C]2 [E,A,C]>[E,A,C] [E,A,C] [E,A,C]2 [E,CE] |[M:7/8] [E,B,E]2 [E,B,D] [E,B,D] A,,3 | %9
[M:1/4] B,>C |[M:4/4] D6 z2 | [A,,A,]2 [A,,A,]>G,, A,,2[K:treble] EF | G6[K:bass] z2 | %13
 [A,EA]6 [A,CE][A,DE] | z4 .F2[K:bass] z2 | [D,D]2 [D,D]>[D,D] [D,DE]2 [D,A,E][D,A,D] | %16
 [E,A,C]2 [E,A,][E,A,] [E,G,]2 [E,B,D][E,B,D] |[M:7/8] z2 F, F, E,3 |] %18
V:3
 x8 | x8 | x8 | x8 | A,2 z2 z4 | z4 A,2[K:bass] z2 | x8 | x8 |[M:7/8] x7 |[M:1/4] x2 | %10
[M:4/4] z2 E,>E, E,2 [E,G,E][E,G,D] | x6[K:treble] x2 | z2[K:bass] E,>E, E,2 [E,C][E,E] | x8 | %14
 [A,EA]2 [A,EA]>[A,EA] [A,A]-[A,EA][K:bass][A,DE][A,CE] | x8 | x8 | %17
[M:7/8] A,,-A,,-A,,- A,,- A,,3 |] %18
V:4
 x8 | x8 | x8 | x8 | x8 | x8 | F2 F>F F-[FA]GF | x8 |[M:7/8] x7 |[M:1/4] x2 | %10
[M:4/4] z2 G,>G, G,2 cB | x8 | z2 E>E E2 A[GB] | x8 | x8 | x8 | z2 CC B,2 FG | %17
[M:7/8] [A,C]2 z z z z2 |] %18

